X:270
T:B270-  The Lass of Cumberland
S:(1st/2)
Q:1/4=120
L:1/4
M:C|
K:Gm
d|c3/2^B/cd|B3/2A/GA|BdB3/2c/|(d/c/)(d/e/)f3/2b/|\
a3/2g/fa|c3/2^B/cc|ddg3/2A/|BGG:|]

